Breeze-Noir-Black-Blue/status/22/network-wireless-signal-excellent.svg

<svg xmlns="http://www.w3.org/2000/svg" viewBox="0 0 22 22">
  <defs id="defs3051">
    <style type="text/css" id="current-color-scheme">
      .ColorScheme-Text {
        color:#232629;
      }
      </style>
  </defs>
    <path
       style="fill:currentColor;fill-opacity:1;stroke:none" 
       d="M 11,3 C 6.8450005,3 3.0940635,4.671563 0.3828125,7.382812 l 0.708985,0.708985 C 3.6222975,5.561297 7.1220005,4 11,4 c 3.878,0 7.377703,1.561297 9.908203,4.091797 L 21.617187,7.382812 C 18.905937,4.671563 15.155001,3 11,3 Z m 0,4 C 7.9530005,7 5.2030945,8.226594 3.2148445,10.214844 l 0.707031,0.707031 C 5.7293755,9.114365 8.2300005,8 11,8 c 2.77,0 5.270615,1.114365 7.078125,2.921875 l 0.707031,-0.707031 C 16.796906,8.226594 14.047,7 11,7 Z m 0,4 c -1.9389995,0 -3.6898275,0.779672 -4.9550775,2.044922 l 0.708984,0.708984 C 7.8384065,12.669406 9.3380005,12 11,12 c 1.662,0 3.161595,0.669406 4.246094,1.753906 l 0.708984,-0.708984 C 14.689828,11.779672 12.939,11 11,11 Z m 0,4 c -1.1079955,0 -1.9999995,0.892004 -1.9999995,2 0,1.107996 0.892004,2 1.9999995,2 1.107996,0 2,-0.892004 2,-2 0,-1.107996 -0.892004,-2 -2,-2 z m 0,1 c 0.554,0 1,0.446 1,1 0,0.554 -0.446,1 -1,1 -0.554,0 -1,-0.446 -1,-1 0,-0.554 0.446,-1 1,-1 z"
          class="ColorScheme-Text"/>
</svg>

<svg xmlns="http://www.w3.org/2000/svg" viewBox="0 0 22 22">
  <defs id="defs3051">
    <style type="text/css" id="current-color-scheme">
      .ColorScheme-Text {
        color:#232629;
      }
      </style>
  </defs>
    <path
       style="fill:currentColor;fill-opacity:1;stroke:none"
       d="M 11 3 C 6.845001 3 3.0940644 4.6715125 0.3828125 7.3828125 L 1.0917969 8.0917969 C 3.6222976 5.5612969 7.1220066 4 11 4 C 14.878001 4 18.377702 5.5612969 20.908203 8.0917969 L 21.617188 7.3828125 C 18.905936 4.6715125 15.155007 3 11 3 z M 11 7 C 7.9530063 7 5.2030906 8.2265438 3.2148438 10.214844 L 3.921875 10.921875 C 5.7293791 9.114375 8.2300034 8 11 8 C 13.770004 8 16.270612 9.114375 18.078125 10.921875 L 18.785156 10.214844 C 16.796909 8.2265438 14.047002 7 11 7 z M 11 11 C 9.0610031 11 7.3101723 11.779722 6.0449219 13.044922 L 6.7539062 13.753906 C 7.8384139 12.669406 9.3380002 12 11 12 C 12.661999 12 14.161595 12.669406 15.246094 13.753906 L 15.955078 13.044922 C 14.689828 11.779722 12.939005 11 11 11 z M 11 15 C 9.8920029 15 9 15.892 9 17 C 9 18.108 9.8920029 19 11 19 C 12.108005 19 13 18.108 13 17 C 13 15.892 12.108005 15 11 15 z M 11 16 C 11.554002 16 12 16.446 12 17 C 12 17.554 11.554002 18 11 18 C 10.446006 18 10 17.554 10 17 C 10 16.446 10.446006 16 11 16 z "
       class="ColorScheme-Text"
       id="rect4152-67" />
</svg>
